build/assets/img/stage-support/image-element-4.svg

<svg width="111" height="93" viewBox="0 0 111 93" fill="none" xmlns="http://www.w3.org/2000/svg">
<g filter="url(#filter0_di)">
<path d="M24.6595 59.8338H2.30622V54.3411L9.82749 46.6859C11.9901 44.4276 13.3872 42.8583 14.0379 42.0736C14.5896 41.433 15.059 40.7257 15.435 39.9684C15.6938 39.3639 15.8241 38.7121 15.8177 38.0546C15.8371 37.6974 15.7767 37.3403 15.641 37.0093C15.5053 36.6783 15.2976 36.3816 15.0331 36.1408C14.424 35.6327 13.6426 35.3791 12.8513 35.4327C11.8126 35.4539 10.7972 35.744 9.90406 36.2747C8.6992 37.0378 7.57113 37.9159 6.53573 38.8967L2 33.5188C3.21698 32.3546 4.55833 31.3277 5.99986 30.4567C7.1062 29.8363 8.29048 29.3664 9.52127 29.0597C10.9249 28.7229 12.3649 28.5622 13.8082 28.5812C15.6428 28.5466 17.4636 28.9055 19.1478 29.6338C20.6295 30.2635 21.8985 31.3067 22.8031 32.6385C23.6627 33.9295 24.1099 35.4512 24.0854 37.002C24.1117 39.2717 23.444 41.4953 22.1716 43.375C21.4567 44.5137 20.6296 45.5779 19.7028 46.5519C18.6502 47.6428 16.4302 49.7288 13.0044 52.7909V53.0015H24.6595V59.8338Z" fill="#0A3D76"/>
<path d="M54.1686 53.8627H50.7811V59.8338H42.5709V53.8627H30.2842V47.7576L43.0876 29.0214H50.7429V47.6428H54.1303L54.1686 53.8627ZM42.5709 47.6428V44.064C42.5709 43.3941 42.5709 42.4755 42.5709 41.3463C42.5615 40.7064 42.5999 40.0667 42.6857 39.4325H42.456C41.9909 40.4862 41.4471 41.5034 40.8293 42.4755L37.4036 47.5471L42.5709 47.6428Z" fill="#0A3D76"/>
<path d="M77.0597 28.5812L65.5768 60.2548H58.2852L69.768 28.5812H77.0597Z" fill="#0A3D76"/>
<path d="M84.7703 59.8338L95.3537 35.9494H81.957V29.0597H104.196V33.9782L93.3442 59.8338H84.7703Z" fill="#0A3D76"/>
<path d="M24.9661 20.792C28.4129 16.6641 32.7243 13.3435 37.5955 11.0649C42.4666 8.78633 47.7788 7.6053 53.1566 7.6053C58.5343 7.6053 63.8465 8.78633 68.7177 11.0649C73.5889 13.3435 77.9002 16.6641 81.3471 20.792H88.3516C84.4783 15.0092 79.2402 10.2696 73.1001 6.99207C66.96 3.71454 60.1071 2 53.147 2C46.1869 2 39.334 3.71454 33.1939 6.99207C27.0538 10.2696 21.8157 15.0092 17.9424 20.792H24.9661Z" fill="#0A3D76"/>
<path d="M81.309 68.044C77.8621 72.172 73.5508 75.4925 68.6796 77.7711C63.8084 80.0497 58.4963 81.2308 53.1185 81.2308C47.7407 81.2308 42.4285 80.0497 37.5574 77.7711C32.6862 75.4925 28.3748 72.172 24.928 68.044H17.9043C21.7805 73.8228 27.0197 78.5585 33.1594 81.8332C39.2991 85.1079 46.1505 86.8208 53.1089 86.8208C60.0673 86.8208 66.9187 85.1079 73.0584 81.8332C79.1981 78.5585 84.4373 73.8228 88.3135 68.044H81.309Z" fill="#0A3D76"/>
</g>
<defs>
<filter id="filter0_di" x="0" y="0" width="110.196" height="92.8208" filterUnits="userSpaceOnUse" color-interpolation-filters="sRGB">
<feFlood flood-opacity="0" result="BackgroundImageFix"/>
<feColorMatrix in="SourceAlpha" type="matrix" values="0 0 0 0 0 0 0 0 0 0 0 0 0 0 0 0 0 0 127 0"/>
<feOffset dx="2" dy="2"/>
<feGaussianBlur stdDeviation="2"/>
<feColorMatrix type="matrix" values="0 0 0 0 0 0 0 0 0 0 0 0 0 0 0 0 0 0 0.15 0"/>
<feBlend mode="normal" in2="BackgroundImageFix" result="effect1_dropShadow"/>
<feBlend mode="normal" in="SourceGraphic" in2="effect1_dropShadow" result="shape"/>
<feColorMatrix in="SourceAlpha" type="matrix" values="0 0 0 0 0 0 0 0 0 0 0 0 0 0 0 0 0 0 127 0" result="hardAlpha"/>
<feOffset dx="-1" dy="-1"/>
<feGaussianBlur stdDeviation="2"/>
<feComposite in2="hardAlpha" operator="arithmetic" k2="-1" k3="1"/>
<feColorMatrix type="matrix" values="0 0 0 0 0 0 0 0 0 0 0 0 0 0 0 0 0 0 0.2 0"/>
<feBlend mode="normal" in2="shape" result="effect2_innerShadow"/>
</filter>
</defs>
</svg>

<svg width="111" height="93" fill="none" xmlns="http://www.w3.org/2000/svg"><g filter="url(#filter0_di)" fill="#0A3D76"><path d="M24.66 59.834H2.306V54.34l7.521-7.655c2.163-2.258 3.56-3.828 4.21-4.612a10.128 10.128 0 001.398-2.106c.259-.604.39-1.256.383-1.913a2.411 2.411 0 00-.785-1.914 3.08 3.08 0 00-2.182-.708 6.01 6.01 0 00-2.947.842 22.067 22.067 0 00-3.368 2.622L2 33.519a22.973 22.973 0 014-3.062c1.106-.62 2.29-1.09 3.521-1.397a17.392 17.392 0 014.287-.479 12.843 12.843 0 015.34 1.053 8.382 8.382 0 013.655 3.005 7.655 7.655 0 011.282 4.363 11.139 11.139 0 01-1.913 6.373 20.156 20.156 0 01-2.47 3.177c-1.052 1.09-3.272 3.177-6.698 6.239V53H24.66v6.833zm29.509-5.971H50.78v5.97h-8.21v-5.97H30.284v-6.105L43.088 29.02h7.655v18.622h3.387l.039 6.22zm-11.598-6.22v-6.297c-.01-.64.029-1.28.115-1.913h-.23a22.955 22.955 0 01-1.627 3.042l-3.425 5.072 5.167.096zM77.06 28.581L65.577 60.255h-7.292L69.768 28.58h7.292zm7.71 31.253l10.584-23.885H81.957v-6.89h22.239v4.92L93.344 59.833H84.77zM24.966 20.792a36.726 36.726 0 0156.381 0h7.005a42.372 42.372 0 00-70.41 0h7.024zm56.343 47.252a36.725 36.725 0 01-56.381 0h-7.024a42.39 42.39 0 0070.41 0h-7.005z"/></g><defs><filter id="filter0_di" x="0" y="0" width="110.196" height="92.821" filterUnits="userSpaceOnUse" color-interpolation-filters="sRGB"><feFlood flood-opacity="0" result="BackgroundImageFix"/><feColorMatrix in="SourceAlpha" values="0 0 0 0 0 0 0 0 0 0 0 0 0 0 0 0 0 0 127 0"/><feOffset dx="2" dy="2"/><feGaussianBlur stdDeviation="2"/><feColorMatrix values="0 0 0 0 0 0 0 0 0 0 0 0 0 0 0 0 0 0 0.15 0"/><feBlend in2="BackgroundImageFix" result="effect1_dropShadow"/><feBlend in="SourceGraphic" in2="effect1_dropShadow" result="shape"/><feColorMatrix in="SourceAlpha" values="0 0 0 0 0 0 0 0 0 0 0 0 0 0 0 0 0 0 127 0" result="hardAlpha"/><feOffset dx="-1" dy="-1"/><feGaussianBlur stdDeviation="2"/><feComposite in2="hardAlpha" operator="arithmetic" k2="-1" k3="1"/><feColorMatrix values="0 0 0 0 0 0 0 0 0 0 0 0 0 0 0 0 0 0 0.2 0"/><feBlend in2="shape" result="effect2_innerShadow"/></filter></defs></svg>
